svg/gas_station_in_use.svg

<svg xmlns="http://www.w3.org/2000/svg" viewBox="0 0 24 24"><path d="M17 18.5v-10c0-.69.28-1.32.73-1.77l-.01-.01L21.44 3l1.06 1.06-2.11 2.11C21.33 6.5 22 7.43 22 8.5c0 .33-.06.65-.19.96-.13.3-.31.58-.54.81a2.505 2.505 0 0 1-2.77.52v7.71c0 .33-.07.65-.19.96-.13.3-.31.58-.54.81s-.51.42-.81.54a2.505 2.505 0 0 1-2.73-.54c-.47-.47-.73-1.11-.73-1.77v-5H12V21H2V5c0-1.11.89-2 2-2h6a2 2 0 0 1 2 2v7h1a2 2 0 0 1 2 2v4.5c0 .27.11.5.29.71.21.19.45.29.71.29.27 0 .5-.1.71-.29.19-.21.29-.44.29-.71M10 10V5H4v5zm9.5-.5c.27 0 .5-.1.71-.29.19-.21.29-.44.29-.71 0-.26-.1-.5-.29-.71-.21-.18-.44-.29-.71-.29-.26 0-.5.11-.71.29-.18.21-.29.45-.29.71 0 .27.11.5.29.71.21.19.45.29.71.29"/></svg>

<svg xmlns="http://www.w3.org/2000/svg" id="mdi-gas-station-in-use" viewBox="0 0 24 24"><path d="M17 18.5V8.5C17 7.81 17.28 7.18 17.73 6.73L17.72 6.72L21.44 3L22.5 4.06L20.39 6.17C21.33 6.5 22 7.43 22 8.5C22 8.83 21.94 9.15 21.81 9.46C21.68 9.76 21.5 10.04 21.27 10.27C20.8 10.74 20.16 11 19.5 11C19.14 11 18.81 10.92 18.5 10.79V18.5C18.5 18.83 18.43 19.15 18.31 19.46C18.18 19.76 18 20.04 17.77 20.27C17.54 20.5 17.26 20.69 16.96 20.81C16.65 20.94 16.33 21 16 21C15.34 21 14.7 20.74 14.23 20.27C13.76 19.8 13.5 19.16 13.5 18.5V13.5H12V21H2V5C2 3.89 2.89 3 4 3H10C11.1 3 12 3.89 12 5V12H13C14.1 12 15 12.89 15 14V18.5C15 18.77 15.11 19 15.29 19.21C15.5 19.4 15.74 19.5 16 19.5C16.27 19.5 16.5 19.4 16.71 19.21C16.9 19 17 18.77 17 18.5M10 10V5H4V10H10M19.5 9.5C19.77 9.5 20 9.4 20.21 9.21C20.4 9 20.5 8.77 20.5 8.5C20.5 8.24 20.4 8 20.21 7.79C20 7.61 19.77 7.5 19.5 7.5C19.24 7.5 19 7.61 18.79 7.79C18.61 8 18.5 8.24 18.5 8.5C18.5 8.77 18.61 9 18.79 9.21C19 9.4 19.24 9.5 19.5 9.5Z" /></svg>
